X: 122
T:Never Love Thee More
S:Playford
M:6/8
L:1/8
K:G
"G"D>ED G2A|"G"B>cB A2G|"G7"dB2 A2G|"C"E3 -E2E|
"G"D>ED G2A|"G"B>cB A2G|"G"dB2 c2d|"C"e3 -e2e|
"G"dB2 A2G|"C"c2d e>dc|"G"dBc "C"A2G|"C"E3 -E2E|
"G"D>ED G>AG|"G"Bcd "C"e>dc|"G"dBc "D7"A2G|"G"G3 -G2z||

